X: 37449
T: Sliabh Mis
R: jig
M: 6/8
K: Cmajor
C|DEF GAc|ded G2d|cBc E2c|AGE GEC|
DEF GAc|ded A2d|(3cdc A GED|1 ECC C2:|2 (3EDC A, CDE||
F3 F2G|ABc d3|dcA AGA|c2G AGE|
D2E F2G|ABc d2e|dcA AGE|GED CDE:|

